!!! OTL: Berkowitz55
!!! Chapter: 1
!!! Section: I
!!! Page: 16
!!! Mode: 
!!! Encoder: DJB
**kern
*staff1
*I"Piano
=1-
*clefC3
*k[f#c#g#]
*A:
*M4/4
4a\
4g#\
4f#\
4e\
=2
4f#\
8e\L
8d\J
4c#\
4B/
=3
8c#\L
8d\
8e\
8f#\J
4.e\
8f#\
=4
8e\L
8f#\
8g#\
8a\J
2b\
=5
4a\
4g#\
4f#\
4e\
=6
4f#\
8e\L
8d\J
4c#\
4B/
=7
8c#\L
8d\
8e\
8f#\J
4.e\
8c#\
=8
8d\L
8e\
8f#\
8g#\J
2a\
==
*-
